X: 43124
T: Winging, The
R: reel
M: 4/4
K: Amajor
"A"E2 AA G2 BB|A2 cc dfed|"E"ceag fedc|BcBA GAFG|
"A"E2 AA G2 BB|A2 cc dfed|"A"ceag "D"fedc|1 "E"BAGB "A"A4:|2 "E" BAGB "A"ABcA||
|:"A"ccec aceA|ccec aceA|"E"BBeB gBeA|BBeB gBeB|
"A"ccec aceA|ccec aceA|"E"Bagf edcA|"E" BAGB "A"A2 AB:|

